X:1
T:So Glad To Know You
C:© 1999 Harry Bolick -  harry@bolick.net - www.bolick.net
R:
O:United States
A:Hastings-On-Hudson, New York
M:4/4
L:1/8
Q:250
K:D
 AB c|: "D" d2 z  c BABc  | "D" dDDD D z  (3(DFA) |  d2 c  B2 A GF | "A" EcB(AA2)  (3(ABc)|
"D" d2 c"D7"B2 AG F |"G"  E2 (3(FED)  B,4 | "D" (A,B,)DE FDEF |[1 "Em" G2"A" F2 "D"D2 (3(ABc) :| [2 "Em" G2"A" F2 "D"D2 (3(DFA) |]
"D"f3 d fbaf | a2 f d2 g (fe) |"A" e3 f g(fe)d | "A" .c a2 .c a2 (3(ABc) |
"D" dcde "Bm" fdef | "Em"  gefg "F#m" a3a |"G" b f2 d "A"fedc |
"D" d4 z  A Bd | "Em" e3 f  gfed | "F#m"cBAG  F2FD | E "G" G2 .G  .GFED |
"D" F A2 A AA Bd | "Em" e3 f  gfed | "F#m"cBAG   F2FD |E "G" c2B2 "A"  A Bc | "D" dDDD D  ABc :|
